X:18
T:OYSTER GIRL'S -- JIG., THE
R:jig
B:Coles pg. 65.2
Z:John B. Walsh, <walsh:mat:h.ubc.ca> 5/19/02
M:6/8
L:1/8
K:G
ud|d>ed B2G|A2F D2F|G2B dcB|(B3A2) c|
d>ed B2G|g2e c2e|edB dcA|G3-G2 H :|
B|kB2B B2B|B2e B2_B|A2A AB^c|d3 d2 d|
d>ed B2G|g2e cde|edB dcA|G3-G2d|
d>ed B2G|A2F D2F|GAB dcB|(B3 A2)d|
d>ed B2G|g2e c2e|d2B dcA|G3-"D.C."G2|]
